svg/u1f629.svg

<svg viewBox="0 0 128 128" xmlns="http://www.w3.org/2000/svg">
  <g id="gold">
    <radialGradient id="face_1_" cx="63.6" cy="1992.9" gradientTransform="matrix(1 0 0 1 0 -1930)" gradientUnits="userSpaceOnUse" r="56.9597">
      <stop offset="0.5" stop-color="#FDE030"/>
      <stop offset="0.92" stop-color="#F7C02B"/>
      <stop offset="1" stop-color="#F4A223"/>
    </radialGradient>
    <path id="face" d="M63.6,118.8c-27.9,0-58-17.5-58-55.9S35.7,7,63.6,7c15.5,0,29.8,5.1,40.4,14.4 c11.5,10.2,17.6,24.6,17.6,41.5s-6.1,31.2-17.6,41.4C93.4,113.6,79,118.8,63.6,118.8z" fill="url(#face_1_)"/>
    <path d="M111.49,29.67c5.33,8.6,8.11,18.84,8.11,30.23c0,16.9-6.1,31.2-17.6,41.4 c-10.6,9.3-25,14.5-40.4,14.5c-18.06,0-37-7.35-48.18-22.94c10.76,17.66,31,25.94,50.18,25.94c15.4,0,29.8-5.2,40.4-14.5 c11.5-10.2,17.6-24.5,17.6-41.4C121.6,50.16,118.13,38.84,111.49,29.67z" fill="#EB8F00"/>
  </g>
  <g id="facial_expressions">
    <g id="weary-face">
      <g id="eyes">
        <g id="peepers">
          <path d="M35.9,51.7c0.34,0.01,0.67,0.04,1,0.1c0.17-0.02,0.35,0.02,0.5,0.1h1.4 c0.4,0.02,0.81-0.02,1.2-0.1c0.4,0,0.8-0.2,1.3-0.2c0.42-0.07,0.82-0.21,1.2-0.4c0.81-0.24,1.56-0.65,2.2-1.2 c0.32-0.24,0.63-0.51,0.9-0.8c0.2-0.3,0.5-0.6,0.7-0.9l0.6-0.9c0.17-0.28,0.31-0.58,0.4-0.9c0.1-0.3,0.2-0.5,0.3-0.8 c0.09-0.26,0.23-0.49,0.4-0.7l0.4-0.8c0.86-1.87,3.06-2.69,4.93-1.83c0.02,0.01,0.05,0.02,0.07,0.03c1.18,0.58,2,1.7,2.2,3 c0.01,0.43,0.04,0.87,0.1,1.3v1.5c-0.06,0.67-0.16,1.34-0.3,2c-0.19,0.79-0.46,1.56-0.8,2.3c-0.56,1.37-1.38,2.63-2.4,3.7 l-0.5,0.6L51,57.2c-0.82,0.69-1.69,1.32-2.6,1.9c-0.93,0.48-1.9,0.89-2.9,1.2l-0.7,0.2l-0.7,0.1c-0.46,0.11-0.93,0.18-1.4,0.2 c-0.9,0.1-1.8,0.1-2.7,0c-0.77-0.04-1.54-0.14-2.3-0.3c-0.68-0.14-1.35-0.34-2-0.6c-0.27-0.08-0.54-0.18-0.8-0.3 c-0.2-0.1-0.3-0.2-0.5-0.3c-0.31-0.15-0.61-0.32-0.9-0.5c-1.79-1.14-2.32-3.5-1.2-5.3C33.09,52.3,34.46,51.61,35.9,51.7z" fill="#422B0D"/>
        </g>
      </g>
    </g>
    <g id="tired-face">
      <g id="mouth">
        <path d="M89.74,79.1c-8.35-2.5-17.03-3.71-25.74-3.6c-8.83-0.08-17.62,1.18-26.07,3.75 C35,84.02,33.44,89.5,33.4,95.1c-0.05,3.52,2.76,6.41,6.28,6.46c1.01,0.01,2.02-0.21,2.92-0.66c6.71-3.14,14-4.84,21.4-5 c7.41,0.14,14.7,1.85,21.4,5c3.15,1.56,6.97,0.28,8.54-2.88c0.45-0.91,0.68-1.91,0.66-2.92C94.54,89.41,92.85,83.86,89.74,79.1z" fill="#422B0D"/>
        <path d="M89.74,79.1C83.7,69.6,73.09,67.2,64,67.2c-9.88,0-20.3,2.47-26.07,12 c8.45-2.55,17.24-3.8,26.07-3.7C72.71,75.39,81.39,76.6,89.74,79.1z" fill="#FFFFFF"/>
      </g>
    </g>
    <path d="M63.94,65.7c3.52,0.03,7.03,0.47,10.46,1.3c3.48,0.83,6.77,2.3,9.71,4.34c2.9,2.11,5.29,4.85,7,8 c1.71,3.07,2.92,6.4,3.56,9.85c0.32,1.72,0.49,3.46,0.49,5.21c0.04,0.92-0.06,1.83-0.3,2.72c-0.27,0.9-0.72,1.73-1.31,2.45 c-1.2,1.42-2.93,2.3-4.79,2.43c-0.91,0.05-1.83-0.07-2.7-0.35c-0.87-0.32-1.59-0.71-2.38-1c-6.2-2.86-12.91-4.48-19.74-4.75 c6.86,0.01,13.66,1.37,20,4c0.8,0.31,1.6,0.7,2.34,0.94c0.77,0.21,1.57,0.28,2.36,0.21c1.58-0.16,3.02-0.95,4-2.2 c0.47-0.61,0.81-1.32,1-2.07c0.18-0.77,0.24-1.57,0.17-2.36c-0.07-1.68-0.29-3.36-0.65-5c-0.73-3.25-1.98-6.36-3.72-9.2 c-1.67-2.82-3.95-5.23-6.67-7.06c-2.75-1.76-5.8-3-9-3.64c-3.25-0.65-6.56-0.94-9.87-0.85L63.94,65.7z" fill="#EB8F00"/>
    <path d="M64.19,68.7c-3.31-0.09-6.62,0.2-9.86,0.85c-3.2,0.64-6.25,1.88-9,3.64c-2.72,1.83-5,4.24-6.67,7.06 c-1.73,2.84-2.99,5.95-3.72,9.2c-0.36,1.64-0.58,3.32-0.65,5c-0.07,0.79-0.01,1.59,0.17,2.36c0.2,0.75,0.54,1.45,1,2.07 c0.98,1.25,2.42,2.04,4,2.2c0.79,0.07,1.59,0,2.36-0.21c0.75-0.24,1.55-0.63,2.34-0.94c6.34-2.63,13.14-3.99,20-4 c-6.82,0.25-13.53,1.84-19.74,4.68c-0.78,0.34-1.51,0.73-2.38,1c-0.87,0.28-1.79,0.4-2.7,0.35c-1.87-0.13-3.6-1.01-4.8-2.44 c-0.6-0.72-1.05-1.55-1.32-2.45c-0.24-0.89-0.34-1.8-0.3-2.72c0.01-1.75,0.18-3.49,0.49-5.21c0.66-3.45,1.87-6.77,3.59-9.83 c1.71-3.15,4.1-5.89,7-8c2.95-2.03,6.25-3.49,9.73-4.31c3.43-0.83,6.94-1.27,10.46-1.3V68.7z" fill="#EB8F00"/>
    <path d="M36.72,34.48c-2.07,0.86-1.48,4,0.89,3.59c5.19-1.07,9.77-4.08,12.79-8.43 c1.17-1.57,2.07-3.32,2.66-5.18c0.39-0.93-0.05-2.01-0.99-2.4s-2.01,0.05-2.4,0.99l0,0l-0.08,0.12 C46.71,28.29,42.17,32.27,36.72,34.48z" fill="#422B0D"/>
    <path d="M92.06,51.7c-0.34,0.01-0.67,0.04-1,0.1c-0.17-0.02-0.35,0.02-0.5,0.1h-1.4 c-0.4,0.02-0.81-0.02-1.2-0.1c-0.4,0-0.8-0.2-1.3-0.2c-0.42-0.07-0.82-0.21-1.2-0.4c-0.81-0.24-1.56-0.65-2.2-1.2 c-0.32-0.24-0.63-0.51-0.9-0.8c-0.2-0.3-0.5-0.6-0.7-0.9l-0.6-0.9c-0.17-0.28-0.31-0.58-0.4-0.9c-0.1-0.3-0.2-0.5-0.3-0.8 c-0.08-0.25-0.2-0.49-0.36-0.7l-0.4-0.8c-0.86-1.87-3.06-2.69-4.93-1.83c-0.02,0.01-0.05,0.02-0.07,0.03c-1.18,0.58-2,1.7-2.2,3 c-0.01,0.43-0.04,0.87-0.1,1.3v1.5c0.06,0.67,0.16,1.34,0.3,2c0.19,0.79,0.46,1.56,0.8,2.3c0.56,1.37,1.38,2.63,2.4,3.7l0.5,0.6 l0.7,0.4c0.82,0.69,1.69,1.32,2.6,1.9c0.93,0.48,1.9,0.89,2.9,1.2l0.7,0.2l0.7,0.1c0.46,0.11,0.93,0.18,1.4,0.2 c0.9,0.1,1.8,0.1,2.7,0c0.77-0.04,1.54-0.14,2.3-0.3c0.68-0.14,1.35-0.34,2-0.6c0.27-0.08,0.54-0.18,0.8-0.3 c0.2-0.1,0.3-0.2,0.5-0.3c0.31-0.15,0.61-0.32,0.9-0.5c1.79-1.14,2.32-3.5,1.2-5.3C94.9,52.28,93.51,51.59,92.06,51.7z" fill="#422B0D"/>
    <path d="M91.24,34.48c2.07,0.86,1.48,4-0.89,3.59c-5.19-1.07-9.77-4.08-12.79-8.43 c-1.17-1.56-2.07-3.32-2.65-5.18c-0.33-0.95,0.17-2,1.13-2.33c0.87-0.3,1.83,0.09,2.24,0.92l0.08,0.12 C81.25,28.29,85.79,32.27,91.24,34.48z" fill="#422B0D"/>
  </g>
</svg>

<svg viewBox="0 0 128 128" xmlns="http://www.w3.org/2000/svg">
  <defs>
    <radialGradient id="face_1_" cx="63.6" cy="62.9" gradientUnits="userSpaceOnUse" r="56.9597">
      <stop offset="0.5" stop-color="#FDE030"/>
      <stop offset="0.92" stop-color="#F7C02B"/>
      <stop offset="1" stop-color="#F4A223"/>
    </radialGradient>
  </defs>
  <path id="face" d="M63.6,118.8 C35.7,118.8 5.6,101.3 5.6,62.9 C5.6,24.5 35.7,7 63.6,7 C79.1,7 93.4,12.1 104,21.4 C115.5,31.6 121.6,46 121.6,62.9 C121.6,79.8 115.5,94.1 104,104.3 C93.4,113.6 79,118.8 63.6,118.8 Z" fill="url(#face_1_)"/>
  <path d="M111.49,29.67 C116.82,38.27 119.6,48.51 119.6,59.9 C119.6,76.8 113.5,91.1 102,101.3 C91.4,110.6 77,115.8 61.6,115.8 C43.54,115.8 24.6,108.45 13.42,92.86 C24.18,110.52 44.42,118.8 63.6,118.8 C79,118.8 93.4,113.6 104,104.3 C115.5,94.1 121.6,79.8 121.6,62.9 C121.6,50.16 118.13,38.84 111.49,29.67 Z" fill="#EB8F00"/>
  <path d="M35.9,51.7 C36.24,51.71 36.57,51.74 36.9,51.8 C37.07,51.78 37.25,51.82 37.4,51.9 L38.8,51.9 C39.2,51.92 39.61,51.88 40,51.8 C40.4,51.8 40.8,51.6 41.3,51.6 C41.72,51.53 42.12,51.39 42.5,51.2 C43.31,50.96 44.06,50.55 44.7,50 C45.02,49.76 45.33,49.49 45.6,49.2 C45.8,48.9 46.1,48.6 46.3,48.3 L46.9,47.4 C47.07,47.12 47.21,46.82 47.3,46.5 C47.4,46.2 47.5,46 47.6,45.7 C47.69,45.44 47.83,45.21 48,45 L48.4,44.2 C49.26,42.33 51.46,41.51 53.33,42.37 C53.35,42.38 53.38,42.39 53.4,42.4 C54.58,42.98 55.4,44.1 55.6,45.4 C55.61,45.83 55.64,46.27 55.7,46.7 L55.7,48.2 C55.64,48.87 55.54,49.54 55.4,50.2 C55.21,50.99 54.94,51.76 54.6,52.5 C54.04,53.87 53.22,55.13 52.2,56.2 L51.7,56.8 L51,57.2 C50.18,57.89 49.31,58.52 48.4,59.1 C47.47,59.58 46.5,59.99 45.5,60.3 L44.8,60.5 L44.1,60.6 C43.64,60.71 43.17,60.78 42.7,60.8 C41.8,60.9 40.9,60.9 40,60.8 C39.23,60.76 38.46,60.66 37.7,60.5 C37.02,60.36 36.35,60.16 35.7,59.9 C35.43,59.82 35.16,59.72 34.9,59.6 C34.7,59.5 34.6,59.4 34.4,59.3 C34.09,59.15 33.79,58.98 33.5,58.8 C31.71,57.66 31.18,55.3 32.3,53.5 C33.09,52.3 34.46,51.61 35.9,51.7 Z" fill="#422B0D"/>
  <path d="M89.74,79.1 C81.39,76.6 72.71,75.39 64,75.5 C55.17,75.42 46.38,76.68 37.93,79.25 C35,84.02 33.44,89.5 33.4,95.1 C33.35,98.62 36.16,101.51 39.68,101.56 C40.69,101.57 41.7,101.35 42.6,100.9 C49.31,97.76 56.6,96.06 64,95.9 C71.41,96.04 78.7,97.75 85.4,100.9 C88.55,102.46 92.37,101.18 93.94,98.02 C94.39,97.11 94.62,96.11 94.6,95.1 C94.54,89.41 92.85,83.86 89.74,79.1 Z" fill="#422B0D"/>
  <path d="M89.74,79.1 C83.7,69.6 73.09,67.2 64,67.2 C54.12,67.2 43.7,69.67 37.93,79.2 C46.38,76.65 55.17,75.4 64,75.5 C72.71,75.39 81.39,76.6 89.74,79.1 Z" fill="#FFFFFF"/>
  <path d="M63.94,65.7 C67.46,65.73 70.97,66.17 74.4,67 C77.88,67.83 81.17,69.3 84.11,71.34 C87.01,73.45 89.4,76.19 91.11,79.34 C92.82,82.41 94.03,85.74 94.67,89.19 C94.99,90.91 95.16,92.65 95.16,94.4 C95.2,95.32 95.1,96.23 94.86,97.12 C94.59,98.02 94.14,98.85 93.55,99.57 C92.35,100.99 90.62,101.87 88.76,102 C87.85,102.05 86.93,101.93 86.06,101.65 C85.19,101.33 84.47,100.94 83.68,100.65 C77.48,97.79 70.77,96.17 63.94,95.9 C70.8,95.91 77.6,97.27 83.94,99.9 C84.74,100.21 85.54,100.6 86.28,100.84 C87.05,101.05 87.85,101.12 88.64,101.05 C90.22,100.89 91.66,100.1 92.64,98.85 C93.11,98.24 93.45,97.53 93.64,96.78 C93.82,96.01 93.88,95.21 93.81,94.42 C93.74,92.74 93.52,91.06 93.16,89.42 C92.43,86.17 91.18,83.06 89.44,80.22 C87.77,77.4 85.49,74.99 82.77,73.16 C80.02,71.4 76.97,70.16 73.77,69.52 C70.52,68.87 67.21,68.58 63.9,68.67 L63.94,65.7 Z" fill="#EB8F00"/>
  <path d="M64.19,68.7 C60.88,68.61 57.57,68.9 54.33,69.55 C51.13,70.19 48.08,71.43 45.33,73.19 C42.61,75.02 40.33,77.43 38.66,80.25 C36.93,83.09 35.67,86.2 34.94,89.45 C34.58,91.09 34.36,92.77 34.29,94.45 C34.22,95.24 34.28,96.04 34.46,96.81 C34.66,97.56 35,98.26 35.46,98.88 C36.44,100.13 37.88,100.92 39.46,101.08 C40.25,101.15 41.05,101.08 41.82,100.87 C42.57,100.63 43.37,100.24 44.16,99.93 C50.5,97.3 57.3,95.94 64.16,95.93 C57.34,96.18 50.63,97.77 44.42,100.61 C43.64,100.95 42.91,101.34 42.04,101.61 C41.17,101.89 40.25,102.01 39.34,101.96 C37.47,101.83 35.74,100.95 34.54,99.52 C33.94,98.8 33.49,97.97 33.22,97.07 C32.98,96.18 32.88,95.27 32.92,94.35 C32.93,92.6 33.1,90.86 33.41,89.14 C34.07,85.69 35.28,82.37 37,79.31 C38.71,76.16 41.1,73.42 44,71.31 C46.95,69.28 50.25,67.82 53.73,67 C57.16,66.17 60.67,65.73 64.19,65.7 L64.19,68.7 Z" fill="#EB8F00"/>
  <path d="M36.72,34.48 C34.65,35.34 35.24,38.48 37.61,38.07 C42.8,37 47.38,33.99 50.4,29.64 C51.57,28.07 52.47,26.32 53.06,24.46 C53.45,23.53 53.01,22.45 52.07,22.06 C51.13,21.67 50.06,22.11 49.67,23.05 L49.67,23.05 L49.59,23.17 C46.71,28.29 42.17,32.27 36.72,34.48 Z" fill="#422B0D"/>
  <path d="M92.06,51.7 C91.72,51.71 91.39,51.74 91.06,51.8 C90.89,51.78 90.71,51.82 90.56,51.9 L89.16,51.9 C88.76,51.92 88.35,51.88 87.96,51.8 C87.56,51.8 87.16,51.6 86.66,51.6 C86.24,51.53 85.84,51.39 85.46,51.2 C84.65,50.96 83.9,50.55 83.26,50 C82.94,49.76 82.63,49.49 82.36,49.2 C82.16,48.9 81.86,48.6 81.66,48.3 L81.06,47.4 C80.89,47.12 80.75,46.82 80.66,46.5 C80.56,46.2 80.46,46 80.36,45.7 C80.28,45.45 80.16,45.21 80,45 L79.6,44.2 C78.74,42.33 76.54,41.51 74.67,42.37 C74.65,42.38 74.62,42.39 74.6,42.4 C73.42,42.98 72.6,44.1 72.4,45.4 C72.39,45.83 72.36,46.27 72.3,46.7 L72.3,48.2 C72.36,48.87 72.46,49.54 72.6,50.2 C72.79,50.99 73.06,51.76 73.4,52.5 C73.96,53.87 74.78,55.13 75.8,56.2 L76.3,56.8 L77,57.2 C77.82,57.89 78.69,58.52 79.6,59.1 C80.53,59.58 81.5,59.99 82.5,60.3 L83.2,60.5 L83.9,60.6 C84.36,60.71 84.83,60.78 85.3,60.8 C86.2,60.9 87.1,60.9 88,60.8 C88.77,60.76 89.54,60.66 90.3,60.5 C90.98,60.36 91.65,60.16 92.3,59.9 C92.57,59.82 92.84,59.72 93.1,59.6 C93.3,59.5 93.4,59.4 93.6,59.3 C93.91,59.15 94.21,58.98 94.5,58.8 C96.29,57.66 96.82,55.3 95.7,53.5 C94.9,52.28 93.51,51.59 92.06,51.7 Z" fill="#422B0D"/>
  <path d="M91.24,34.48 C93.31,35.34 92.72,38.48 90.35,38.07 C85.16,37 80.58,33.99 77.56,29.64 C76.39,28.08 75.49,26.32 74.91,24.46 C74.58,23.51 75.08,22.46 76.04,22.13 C76.91,21.83 77.87,22.22 78.28,23.05 L78.36,23.17 C81.25,28.29 85.79,32.27 91.24,34.48 Z" fill="#422B0D"/>
</svg>
